X:1
T:Title
%%score { ( 1 4 ) | ( 2 3 ) }
L:1/8
M:4/4
K:Ab
V:1 treble nm="Grand Piano"
V:4 treble 
V:2 bass 
V:3 bass 
V:1
 z4 z2[Q:1/4=100] [A,C][B,D] | [CE]2 [CE]>[DF] [CE]2 [CA][DB] | [Ec]2 [Ec][Ec] [FB] [FA]2 F | %3
 E2 AB c2 dc | B6 E2 | [CE]2 [EA]B c2 cc | e2 cc [FB] [FA]2 F | E2 [EA][Fd] c2 B>B |[M:3/4] [CA]6 | %9
[M:1/4] cd |[M:4/4] e2 e>f e c2 [EB] | [FA] [FA]2 A F E2 E | A2 AB c2 dc | B6 z2 | %14
 [CE]2 [EA]B c2 cc | e2 cc [FB]<[FA] [EG]F | E2 [EA][Fd] c c2 B |[M:3/4] [CEA]6 |] %18
V:2
 z4 z2 [A,,E,]2 | [A,,A,]2 [A,,A,]>[A,,A,] [A,,A,]2 [A,,A,][A,,A,] | %2
 [A,,A,]2 [A,,A,][A,,A,] [D,A,] [D,A,]2 [D,A,D] | [A,C]2 [A,C][A,D] [A,E]2 [G,B,E][A,E] | %4
 [E,G,E]6 [E,G,D]2 | [A,,A,]2 [C,A,][E,G,E][K:treble] [A,E]2 [A,E][A,E] | %6
 [A,C_G]2 [A,G][A,G][K:bass] [D,A,] [D,A,]2 [D,A,D] | %7
 [C,A,]2 [C,A,][D,A,] [E,A,E]2 [E,G,D]>[E,G,D] |[M:3/4] [A,,A,]6 |[M:1/4] [A,E]2 | %10
[M:4/4][K:treble] [A,CA]2 [A,CA]>[A,DA] [A,CA] [A,E]2[K:bass] [C,A,] | %11
 [D,A,] [D,A,]2 [F,A,D] [A,D] [A,C]2 [A,C] | [A,C]2 [A,C][A,D] [A,E]2 [G,B,E][A,E] | %13
 [E,G,E]2 [B,,F,][B,,A,] [E,G,]2 [E,G,=D]2 | [A,,A,]2 [C,A,][E,G,E][K:treble] [A,E]2 [A,E][A,E] | %15
 [A,C_G]2 [A,G][A,G][K:bass] [D,A,]<[D,A,] [D,A,][D,A,D] | %16
 [C,A,]2 [C,A,][D,A,] [E,A,E] [E,A,E]2 [E,DE] |[M:3/4] A,,6 |] %18
V:3
 x8 | x8 | x8 | x8 | x8 | x4[K:treble] x4 | x4[K:bass] x4 | x8 |[M:3/4] x6 |[M:1/4] z B, | %10
[M:4/4][K:treble] x7[K:bass] x | x8 | x8 | x8 | x4[K:treble] x4 | x4[K:bass] x4 | x8 |[M:3/4] x6 |] %18
V:4
 x8 | x8 | x8 | x8 | x8 | x8 | x8 | x8 |[M:3/4] x6 |[M:1/4] x2 |[M:4/4] x8 | x8 | x8 | %13
 z2 =DF E2 E2 | x8 | x8 | x8 |[M:3/4] x6 |] %18

